X:410
T: "Die Waisen"
N: Z1090
O: Europa, Mitteleuropa, Deutschland, Niederrhein
R: Romanze, Ballade
M: 3/4
L: 1/8
K: G
d2 | _B2c2d2 | c2c2
G2 | c2_B2A2 | G4
d2 | G2A2_BB | A2A2
G2 | F2G2A2 | G4

@@@ Tune index: 10168
